outputs/icons/action/ar_sharp.svg

<svg width="1200" height="1200" viewBox="0 0 1200 1200" fill="none" xmlns="http://www.w3.org/2000/svg"><g clip-path="url(#clip0_117_808)"><path fill-rule="evenodd" d="M300 150H150V300H50V50H300V150ZM900 50V150H1050V300H1150V50H900ZM1050 1050H900V1150H1150V900H1050V1050ZM150 900H50V1150H300V1050H150V900ZM600 197L950 398.5V801.5L600 1003L250 801.5V398.5L600 197ZM350 743.5L550 858.5V628.5L350 512V743.5ZM402 426.5L600 542L798 426.5L600 312.5L402 426.5ZM650 858.5L850 743.5V512L650 628.5V858.5Z" fill="#1D1E23"/></g><defs><clipPath id="clip0_117_808"><path width="24" fill="white" d="M0 0H1200V1200H0V0z"/></clipPath></defs></svg>

<svg xmlns="http://www.w3.org/2000/svg" width="1200" height="1200" fill="none"><g fill="#000" clip-path="url(#a)"><path d="M300 150H150v150H50V50h250zM900 50v100h150v150h100V50zM1050 1050H900v100h250V900h-100zM150 900H50v250h250v-100H150z"/><path fill-rule="evenodd" d="m600 197 350 201.5v403L600 1003 250 801.5v-403zM350 743.5l200 115v-230L350 512zm52-317L600 542l198-115.5-198-114zm248 432 200-115V512L650 628.5z"/></g><defs><clipPath id="a"><path fill="#fff" d="M0 0h1200v1200H0z"/></clipPath></defs></svg>
